X: 609
T: Skipping Through the Daisies.
T: ag-foileacd tri na noinini.b.
R:air
N:"Playfully." "Collected from J. O'Neill."
B:O'Neill's 609
Z:Transcribed by John Walsh (walsh@math.ubc.ca)
M:6/8
L:1/8
%Q:100
K:Ddor
d|f2d e2c|{e}dcB A2G|FAd f2d|(e<a)z z2 A|
f2d {f}e2c|{e}dcB A2G|FAd age|e<d z z2||
d|A2 F A2d|(B<G) z z2 e|c2A c2e|(g<f) z z2 d|
A2F Adf|(a<Hg) z z2 g|fed e2a|(f<d) z z2||


